X: 1
T: MacLeod's Farewell
C: Donald Shaw
M: C|
L: 1/8
K: D
DE |\
"D"F2BF AFEF | ~D2 DE FABd |\
"Em7"~e2fd efed | ABeB "A"dBAG |\
"D"F2BF AFEF | ~D2 DE FABd |
"Em7"~e2fd efdB |\
[1 "A"ABde "D"dD :|[2 "A"ABde "D"d \
|: ABd |\
"D"A3f edfd | BA Af edfd | "Em7"ABdA BdAB |
"A"dBAF EDB,D | "Bm"F2BF AFEF |\
"D"D2 DE FABd | "Em7"e2fd efdB |\
[1 "A"ABde "D"d :|[2 "A"ABde "D"d2 |]


